; generated by Slic3r 1.0.0RC3 on 2014-03-04 at 09:53:04

; layer_height = 0.25
; perimeters = 3
; top_solid_layers = 3
; bottom_solid_layers = 3
; fill_density = 0.4
; perimeter_speed = 30
; infill_speed = 60
; travel_speed = 130
; nozzle_diameter = 0.35
; filament_diameter = 3
; extrusion_multiplier = 1
; perimeters extrusion width = 0.35mm
; infill extrusion width = 0.39mm
; solid infill extrusion width = 0.39mm
; top infill extrusion width = 0.39mm
; first layer extrusion width = 0.70mm

G21 ; set units to millimeters
M107
M190 S115 ; wait for bed temperature to be reached
M104 S235 ; set temperature
G28 ; home all axes
G1 Z5 F5000 ; lift nozzle
M109 S235 ; wait for temperature to be reached
G90 ; use absolute coordinates
G92 E0
M82 ; use absolute distances for extrusion
G1 F1800.000 E-1.00000
G92 E0
G1 Z0.350 F7800.000
G1 X70.069 Y89.239 F7800.000
G1 E1.00000 F1800.000
G1 X71.209 Y88.629 E1.04001 F540.000
G1 X72.459 Y88.249 E1.08043
G1 X73.749 Y88.129 E1.12052
G1 X127.739 Y88.129 E2.79104
G1 X129.029 Y88.249 E2.83112
G1 X130.279 Y88.629 E2.87155
G1 X131.419 Y89.239 E2.91155
G1 X132.429 Y90.069 E2.95200
G1 X133.249 Y91.069 E2.99202
G1 X133.859 Y92.219 E3.03230
G1 X134.239 Y93.459 E3.07242
G1 X134.359 Y94.759 E3.11282
G1 X134.349 Y103.909 E3.39593
G1 X134.269 Y104.959 E3.42851
G1 X134.009 Y105.989 E3.46138
G1 X133.909 Y106.289 E3.47117
G1 X133.619 Y107.019 E3.49547
G1 X133.149 Y107.869 E3.52553
G1 X132.659 Y108.549 E3.55146
G1 X131.889 Y109.349 E3.58581
G1 X131.129 Y109.969 E3.61616
G1 X130.289 Y110.479 E3.64657
G1 X130.009 Y110.619 E3.65625
G1 X129.099 Y110.989 E3.68665
G1 X128.139 Y111.219 E3.71719
G1 X127.839 Y111.269 E3.72660
G1 X126.749 Y111.359 E3.76045
G1 X74.589 Y111.349 E5.37434
G1 X73.529 Y111.269 E5.40724
G1 X72.499 Y111.009 E5.44010
G1 X72.199 Y110.909 E5.44989
G1 X71.269 Y110.529 E5.48097
G1 X70.419 Y110.009 E5.51181
G1 X70.169 Y109.829 E5.52134
G1 X69.359 Y109.129 E5.55446
G1 X68.659 Y108.319 E5.58759
G1 X68.479 Y108.069 E5.59712
G1 X67.959 Y107.219 E5.62795
G1 X67.579 Y106.289 E5.65903
G1 X67.479 Y105.989 E5.66882
G1 X67.219 Y104.959 E5.70169
G1 X67.139 Y103.909 E5.73427
G1 X67.129 Y94.759 E6.01738
G1 X67.249 Y93.459 E6.05778
G1 X67.629 Y92.219 E6.09791
G1 X68.239 Y91.069 E6.13819
G1 X69.059 Y90.069 E6.17820
G1 X69.996 Y89.298 E6.21575
G1 F1800.000 E5.21575
G92 E0
G1 X75.354 Y96.349 F7800.000
G1 E1.00000 F1800.000
G1 X126.144 Y96.349 E2.57153 F540.000
G1 X126.144 Y103.144 E2.78179
G1 X75.354 Y103.144 E4.35332
G1 X75.354 Y96.442 E4.56068
G1 X74.729 Y95.724 F7800.000
G1 X126.769 Y95.724 E6.17087 F540.000
G1 X126.769 Y103.769 E6.41981
G1 X74.729 Y103.769 E8.03000
G1 X74.729 Y95.817 E8.27603
G1 X74.104 Y95.099 F7800.000
G1 X127.394 Y95.099 E9.92490 F378.000
G1 X127.385 Y103.850 E10.19566
G1 X127.323 Y104.041 E10.20190
G1 X127.270 Y104.127 E10.20502
G1 X127.127 Y104.270 E10.21126
G1 X126.948 Y104.361 E10.21749
G1 X126.735 Y104.394 E10.22415
G1 X74.648 Y104.385 E11.83579
G1 X74.550 Y104.361 E11.83892
G1 X74.370 Y104.270 E11.84515
G1 X74.228 Y104.127 E11.85138
G1 X74.136 Y103.948 E11.85762
G1 X74.104 Y103.735 E11.86428
G1 X74.104 Y95.193 E12.12860
G1 X74.645 Y95.411 F7800.000
G1 X75.817 Y102.701 F7800.000
G1 X75.797 Y102.681 E12.12947 F1080.000
G1 X75.797 Y101.796 E12.15691
G1 X76.702 Y102.701 E12.19660
G1 X77.587 Y102.701 E12.22404
G1 X75.797 Y100.910 E12.30253
G1 X75.797 Y100.025 E12.32997
G1 X78.472 Y102.701 E12.44727
G1 X79.358 Y102.701 E12.47471
G1 X75.797 Y99.140 E12.63082
G1 X75.797 Y98.255 E12.65826
G1 X80.243 Y102.701 E12.85318
G1 X81.128 Y102.701 E12.88062
G1 X75.797 Y97.369 E13.11434
G1 X76.104 Y96.792 E13.13463
G1 X82.014 Y102.701 E13.39367
G1 X82.899 Y102.701 E13.42111
G1 X76.990 Y96.792 E13.68016
G1 X77.875 Y96.792 E13.70760
G1 X83.784 Y102.701 E13.96664
G1 X84.670 Y102.701 E13.99409
G1 X78.760 Y96.792 E14.25313
G1 X79.645 Y96.792 E14.28057
G1 X85.555 Y102.701 E14.53962
G1 X86.440 Y102.701 E14.56706
G1 X80.531 Y96.792 E14.82610
G1 X81.416 Y96.792 E14.85354
G1 X87.325 Y102.701 E15.11259
G1 X88.211 Y102.701 E15.14003
G1 X82.301 Y96.792 E15.39907
G1 X83.187 Y96.792 E15.42652
G1 X89.096 Y102.701 E15.68556
G1 X89.981 Y102.701 E15.71300
G1 X84.072 Y96.792 E15.97205
G1 X84.957 Y96.792 E15.99949
G1 X90.867 Y102.701 E16.25853
G1 X91.752 Y102.701 E16.28597
G1 X85.843 Y96.792 E16.54502
G1 X86.728 Y96.792 E16.57246
G1 X92.637 Y102.701 E16.83150
G1 X93.523 Y102.701 E16.85894
G1 X87.613 Y96.792 E17.11799
G1 X88.498 Y96.792 E17.14543
G1 X94.408 Y102.701 E17.40447
G1 X95.293 Y102.701 E17.43192
G1 X89.384 Y96.792 E17.69096
G1 X90.269 Y96.792 E17.71840
G1 X96.178 Y102.701 E17.97745
G1 X97.064 Y102.701 E18.00489
G1 X91.154 Y96.792 E18.26393
G1 X92.040 Y96.792 E18.29137
G1 X97.949 Y102.701 E18.55042
G1 X98.834 Y102.701 E18.57786
G1 X92.925 Y96.792 E18.83690
G1 X93.810 Y96.792 E18.86435
G1 X99.720 Y102.701 E19.12339
G1 X100.605 Y102.701 E19.15083
G1 X94.696 Y96.792 E19.40988
G1 X95.581 Y96.792 E19.43732
G1 X101.490 Y102.701 E19.69636
G1 X102.376 Y102.701 E19.72380
G1 X96.466 Y96.792 E19.98285
G1 X97.351 Y96.792 E20.01029
G1 X103.261 Y102.701 E20.26933
G1 X104.146 Y102.701 E20.29677
G1 X98.237 Y96.792 E20.55582
G1 X99.122 Y96.792 E20.58326
G1 X105.032 Y102.701 E20.84230
G1 X105.917 Y102.701 E20.86975
G1 X100.007 Y96.792 E21.12879
G1 X100.893 Y96.792 E21.15623
G1 X106.802 Y102.701 E21.41528
G1 X107.687 Y102.701 E21.44272
G1 X101.778 Y96.792 E21.70176
G1 X102.663 Y96.792 E21.72920
G1 X108.573 Y102.701 E21.98825
G1 X109.458 Y102.701 E22.01569
G1 X103.549 Y96.792 E22.27473
G1 X104.434 Y96.792 E22.30218
G1 X110.343 Y102.701 E22.56122
G1 X111.229 Y102.701 E22.58866
G1 X105.319 Y96.792 E22.84771
G1 X106.204 Y96.792 E22.87515
G1 X112.114 Y102.701 E23.13419
G1 X112.999 Y102.701 E23.16163
G1 X107.090 Y96.792 E23.42068
G1 X107.975 Y96.792 E23.44812
G1 X113.885 Y102.701 E23.70716
G1 X114.770 Y102.701 E23.73460
G1 X108.860 Y96.792 E23.99365
G1 X109.746 Y96.792 E24.02109
G1 X115.655 Y102.701 E24.28013
G1 X116.540 Y102.701 E24.30758
G1 X110.631 Y96.792 E24.56662
G1 X111.516 Y96.792 E24.59406
G1 X117.426 Y102.701 E24.85311
G1 X118.311 Y102.701 E24.88055
G1 X112.402 Y96.792 E25.13959
G1 X113.287 Y96.792 E25.16703
G1 X119.196 Y102.701 E25.42608
G1 X120.082 Y102.701 E25.45352
G1 X114.172 Y96.792 E25.71256
G1 X115.057 Y96.792 E25.74000
G1 X120.967 Y102.701 E25.99905
G1 X121.852 Y102.701 E26.02649
G1 X115.943 Y96.792 E26.28554
G1 X116.828 Y96.792 E26.31298
G1 X122.738 Y102.701 E26.57202
G1 X123.623 Y102.701 E26.59946
G1 X117.713 Y96.792 E26.85851
G1 X118.599 Y96.792 E26.88595
G1 X124.508 Y102.701 E27.14499
G1 X125.393 Y102.701 E27.17243
G1 X119.484 Y96.792 E27.43148
G1 X120.369 Y96.792 E27.45892
G1 X125.701 Y102.123 E27.69264
G1 X125.701 Y101.238 E27.72008
G1 X121.255 Y96.792 E27.91500
G1 X122.140 Y96.792 E27.94244
G1 X125.701 Y100.353 E28.09854
G1 X125.701 Y99.467 E28.12599
G1 X123.025 Y96.792 E28.24328
G1 X123.911 Y96.792 E28.27073
G1 X125.701 Y98.582 E28.34922
G1 X125.701 Y97.697 E28.37666
G1 X124.796 Y96.792 E28.41634
G1 X125.681 Y96.792 E28.44378
G1 X125.701 Y96.812 E28.44466
M106 S248
M104 S230 ; set temperature
M140 S110 ; set bed temperature
G1 F1800.000 E27.44466
G92 E0
G1 Z0.600 F7800.000
G1 X127.477 Y95.624 F7800.000
G1 E1.00000 F1800.000
G1 X127.477 Y103.714 E1.10015 F1800
G1 X127.439 Y103.973 E1.10339
G1 X127.336 Y104.175 E1.10620
G1 X127.175 Y104.336 E1.10901
G1 X127.078 Y104.396 E1.11042
G1 X126.862 Y104.466 E1.11323
G1 X74.783 Y104.477 E1.75790
G1 X74.525 Y104.439 E1.76114
G1 X74.322 Y104.336 E1.76395
G1 X74.236 Y104.262 E1.76536
G1 X74.111 Y104.092 E1.76797
G1 X74.032 Y103.862 E1.77098
G1 X74.020 Y95.624 E1.87296
G1 X127.425 Y95.624 E2.53404
G1 X127.827 Y95.274 F7800.000
M106 S255
G1 X127.827 Y103.728 E2.64912 F3600
G1 X127.812 Y103.917 E2.65170
G1 X127.773 Y104.082 E2.65400
G1 X127.708 Y104.238 E2.65630
G1 X127.620 Y104.382 E2.65860
G1 X127.510 Y104.510 E2.66090
G1 X127.382 Y104.620 E2.66320
G1 X127.238 Y104.708 E2.66550
G1 X127.082 Y104.773 E2.66780
G1 X126.917 Y104.812 E2.67010
G1 X126.728 Y104.827 E2.67268
G1 X74.769 Y104.827 E3.37990
G1 X74.580 Y104.812 E3.38248
G1 X74.416 Y104.773 E3.38478
G1 X74.260 Y104.708 E3.38708
G1 X74.116 Y104.620 E3.38938
G1 X73.987 Y104.510 E3.39168
G1 X73.878 Y104.382 E3.39398
G1 X73.789 Y104.238 E3.39628
G1 X73.725 Y104.082 E3.39858
G1 X73.685 Y103.917 E3.40088
G1 X73.670 Y103.728 E3.40346
G1 X73.670 Y95.274 E3.51853
G1 X73.754 Y95.274 E3.51968
M106 S248
G1 X127.743 Y95.274 E4.18799 F1800
M106 S255
G1 X127.775 Y95.274 E4.18842 F3600
M106 S248
G1 X128.177 Y94.924 F7800.000
M106 S255
G1 X128.177 Y103.742 E4.30845 F3600
G1 X128.159 Y103.972 E4.31159
G1 X128.107 Y104.190 E4.31464
G1 X128.021 Y104.397 E4.31769
G1 X127.904 Y104.588 E4.32074
G1 X127.759 Y104.759 E4.32379
G1 X127.588 Y104.904 E4.32684
G1 X127.397 Y105.021 E4.32989
G1 X127.190 Y105.107 E4.33294
G1 X126.972 Y105.159 E4.33599
G1 X126.742 Y105.177 E4.33913
G1 X74.756 Y105.177 E5.04672
G1 X74.525 Y105.159 E5.04987
G1 X74.308 Y105.107 E5.05292
G1 X74.101 Y105.021 E5.05597
G1 X73.970 Y104.941 E5.05805
G1 X73.739 Y104.759 E5.06206
G1 X73.594 Y104.588 E5.06511
G1 X73.476 Y104.397 E5.06816
G1 X73.391 Y104.190 E5.07121
G1 X73.338 Y103.972 E5.07426
G1 X73.320 Y103.742 E5.07740
G1 X73.320 Y94.924 E5.19743
G1 X73.754 Y94.924 E5.20333
M106 S248
G1 X127.744 Y94.924 E5.87165 F1260
M106 S255
G1 X128.125 Y94.924 E5.87684 F3600
M106 S248
G1 X128.002 Y95.227 F7800.000
G1 X127.159 Y103.982 F7800.000
G1 X126.997 Y104.145 E5.87997 F3600
G1 X126.371 Y104.226 E5.88856
G1 X127.215 Y103.382 E5.90480
G1 X127.216 Y102.837 E5.91222
G1 X125.827 Y104.226 E5.93895
G1 X125.283 Y104.225 E5.94636
G1 X127.216 Y102.292 E5.98359
G1 X127.217 Y101.747 E5.99102
G1 X124.739 Y104.225 E6.03874
G1 X124.194 Y104.225 E6.04615
G1 X127.218 Y101.202 E6.10437
G1 X127.219 Y100.656 E6.11179
G1 X123.650 Y104.225 E6.18051
G1 X123.106 Y104.225 E6.18792
G1 X127.219 Y100.111 E6.26713
G1 X127.220 Y99.566 E6.27455
G1 X122.561 Y104.225 E6.36425
G1 X122.017 Y104.225 E6.37166
G1 X127.221 Y99.021 E6.47186
G1 X127.222 Y98.476 E6.47928
G1 X121.473 Y104.225 E6.58998
G1 X120.929 Y104.224 E6.59739
G1 X127.223 Y97.930 E6.71858
G1 X127.223 Y97.385 E6.72600
G1 X120.384 Y104.224 E6.85768
G1 X119.840 Y104.224 E6.86510
G1 X127.224 Y96.840 E7.00727
G1 X127.225 Y96.295 E7.01470
G1 X119.296 Y104.224 E7.16737
G1 X118.751 Y104.224 E7.17478
G1 X127.100 Y95.875 E7.33553
G1 X126.556 Y95.875 E7.34294
G1 X118.207 Y104.224 E7.50369
G1 X117.663 Y104.224 E7.51110
G1 X126.011 Y95.875 E7.67185
G1 X125.467 Y95.875 E7.67926
G1 X117.118 Y104.224 E7.84000
G1 X116.574 Y104.224 E7.84741
G1 X124.922 Y95.875 E8.00815
G1 X124.378 Y95.875 E8.01557
G1 X116.030 Y104.223 E8.17630
G1 X115.486 Y104.223 E8.18371
G1 X123.833 Y95.875 E8.34445
G1 X123.289 Y95.875 E8.35186
G1 X114.941 Y104.223 E8.51260
G1 X114.397 Y104.223 E8.52001
G1 X122.745 Y95.875 E8.68074
G1 X122.200 Y95.875 E8.68815
G1 X113.853 Y104.223 E8.84888
G1 X113.308 Y104.223 E8.85629
G1 X121.656 Y95.875 E9.01701
G1 X121.111 Y95.875 E9.02443
G1 X112.764 Y104.223 E9.18515
G1 X112.220 Y104.223 E9.19256
G1 X120.567 Y95.875 E9.35328
G1 X120.023 Y95.875 E9.36070
G1 X111.676 Y104.222 E9.52141
G1 X111.131 Y104.222 E9.52883
G1 X119.478 Y95.875 E9.68954
G1 X118.934 Y95.875 E9.69695
G1 X110.587 Y104.222 E9.85767
G1 X110.043 Y104.222 E9.86508
G1 X118.389 Y95.875 E10.02579
G1 X117.845 Y95.875 E10.03320
G1 X109.498 Y104.222 E10.19391
G1 X108.954 Y104.222 E10.20132
G1 X117.301 Y95.875 E10.36203
G1 X116.756 Y95.875 E10.36944
G1 X108.410 Y104.222 E10.53015
G1 X107.866 Y104.222 E10.53756
G1 X116.212 Y95.875 E10.69826
G1 X115.667 Y95.875 E10.70568
G1 X107.321 Y104.221 E10.86638
G1 X106.777 Y104.221 E10.87379
G1 X115.123 Y95.875 E11.03449
G1 X114.578 Y95.875 E11.04190
G1 X106.233 Y104.221 E11.20259
G1 X105.688 Y104.221 E11.21000
G1 X114.034 Y95.875 E11.37070
G1 X113.490 Y95.875 E11.37811
G1 X105.144 Y104.221 E11.53880
G1 X104.600 Y104.221 E11.54621
G1 X112.945 Y95.875 E11.70690
G1 X112.401 Y95.875 E11.71431
G1 X104.055 Y104.221 E11.87500
G1 X103.511 Y104.221 E11.88241
G1 X111.856 Y95.875 E12.04309
G1 X111.312 Y95.875 E12.05051
G1 X102.967 Y104.220 E12.21119
G1 X102.423 Y104.220 E12.21860
G1 X110.768 Y95.875 E12.37928
G1 X110.223 Y95.875 E12.38669
G1 X101.878 Y104.220 E12.54737
G1 X101.334 Y104.220 E12.55478
G1 X109.679 Y95.875 E12.71545
G1 X109.134 Y95.875 E12.72287
G1 X100.790 Y104.220 E12.88354
G1 X100.245 Y104.220 E12.89095
G1 X108.590 Y95.875 E13.05162
G1 X108.045 Y95.875 E13.05903
G1 X99.701 Y104.220 E13.21970
G1 X99.157 Y104.220 E13.22711
G1 X107.501 Y95.875 E13.38777
G1 X106.957 Y95.875 E13.39519
G1 X98.613 Y104.219 E13.55585
G1 X98.068 Y104.219 E13.56326
G1 X106.412 Y95.875 E13.72392
G1 X105.868 Y95.875 E13.73133
G1 X97.524 Y104.219 E13.89199
G1 X96.980 Y104.219 E13.89940
G1 X105.323 Y95.875 E14.06006
G1 X104.779 Y95.875 E14.06747
G1 X96.435 Y104.219 E14.22812
G1 X95.891 Y104.219 E14.23554
G1 X104.235 Y95.875 E14.39619
G1 X103.690 Y95.875 E14.40360
G1 X95.347 Y104.219 E14.56425
G1 X94.803 Y104.219 E14.57166
G1 X103.146 Y95.875 E14.73231
G1 X102.601 Y95.875 E14.73972
G1 X94.258 Y104.219 E14.90036
G1 X93.714 Y104.218 E14.90777
G1 X102.057 Y95.875 E15.06841
G1 X101.513 Y95.875 E15.07583
G1 X93.170 Y104.218 E15.23647
G1 X92.625 Y104.218 E15.24388
G1 X100.968 Y95.875 E15.40451
G1 X100.424 Y95.875 E15.41193
G1 X92.081 Y104.218 E15.57256
G1 X91.537 Y104.218 E15.57997
G1 X99.879 Y95.875 E15.74060
G1 X99.335 Y95.875 E15.74802
G1 X90.992 Y104.218 E15.90865
G1 X90.448 Y104.218 E15.91606
G1 X98.790 Y95.875 E16.07669
G1 X98.246 Y95.875 E16.08410
G1 X89.904 Y104.218 E16.24472
G1 X89.360 Y104.217 E16.25213
G1 X97.702 Y95.875 E16.41276
G1 X97.157 Y95.875 E16.42017
G1 X88.815 Y104.217 E16.58079
G1 X88.271 Y104.217 E16.58820
G1 X96.613 Y95.875 E16.74882
G1 X96.068 Y95.875 E16.75623
G1 X87.727 Y104.217 E16.91685
G1 X87.182 Y104.217 E16.92426
G1 X95.524 Y95.875 E17.08487
G1 X94.980 Y95.875 E17.09228
G1 X86.638 Y104.217 E17.25290
G1 X86.094 Y104.217 E17.26031
G1 X94.435 Y95.875 E17.42092
G1 X93.891 Y95.875 E17.42833
G1 X85.550 Y104.217 E17.58894
G1 X85.005 Y104.216 E17.59635
G1 X93.346 Y95.875 E17.75695
G1 X92.802 Y95.875 E17.76436
G1 X84.461 Y104.216 E17.92496
G1 X83.917 Y104.216 E17.93238
G1 X92.257 Y95.875 E18.09298
G1 X91.713 Y95.875 E18.10039
G1 X83.372 Y104.216 E18.26099
G1 X82.828 Y104.216 E18.26840
G1 X91.169 Y95.875 E18.42899
G1 X90.624 Y95.875 E18.43640
G1 X82.284 Y104.216 E18.59700
G1 X81.740 Y104.216 E18.60441
G1 X90.080 Y95.875 E18.76500
G1 X89.535 Y95.875 E18.77241
G1 X81.195 Y104.216 E18.93300
G1 X80.651 Y104.215 E18.94041
G1 X88.991 Y95.875 E19.10099
G1 X88.447 Y95.875 E19.10841
G1 X80.107 Y104.215 E19.26899
G1 X79.562 Y104.215 E19.27640
G1 X87.902 Y95.875 E19.43698
G1 X87.358 Y95.875 E19.44439
G1 X79.018 Y104.215 E19.60497
G1 X78.474 Y104.215 E19.61238
G1 X86.813 Y95.875 E19.77296
G1 X86.269 Y95.875 E19.78037
G1 X77.929 Y104.215 E19.94095
G1 X77.385 Y104.215 E19.94836
G1 X85.725 Y95.875 E20.10893
G1 X85.180 Y95.875 E20.11634
G1 X76.841 Y104.215 E20.27691
G1 X76.297 Y104.215 E20.28432
G1 X84.636 Y95.875 E20.44489
G1 X84.091 Y95.875 E20.45230
G1 X75.752 Y104.214 E20.61286
G1 X75.208 Y104.214 E20.62027
G1 X83.547 Y95.875 E20.78084
G1 X83.002 Y95.875 E20.78825
G1 X74.664 Y104.214 E20.94880
G1 X74.347 Y103.986 E20.95411
G1 X82.458 Y95.875 E21.11028
G1 X81.914 Y95.875 E21.11769
G1 X74.272 Y103.517 E21.26483
G1 X74.272 Y102.973 E21.27225
G1 X81.369 Y95.875 E21.40890
G1 X80.825 Y95.875 E21.41632
G1 X74.272 Y102.428 E21.54249
G1 X74.272 Y101.884 E21.54990
G1 X80.280 Y95.875 E21.66560
G1 X79.736 Y95.875 E21.67301
G1 X74.272 Y101.340 E21.77822
G1 X74.272 Y100.795 E21.78563
G1 X79.192 Y95.875 E21.88036
G1 X78.647 Y95.875 E21.88777
G1 X74.272 Y100.251 E21.97201
G1 X74.272 Y99.706 E21.97943
G1 X78.103 Y95.875 E22.05319
G1 X77.558 Y95.875 E22.06060
G1 X74.272 Y99.162 E22.12388
G1 X74.272 Y98.617 E22.13129
G1 X77.014 Y95.875 E22.18409
G1 X76.470 Y95.875 E22.19150
G1 X74.272 Y98.073 E22.23382
G1 X74.272 Y97.529 E22.24123
G1 X75.925 Y95.875 E22.27306
G1 X75.381 Y95.875 E22.28047
G1 X74.272 Y96.984 E22.30182
G1 X74.272 Y96.440 E22.30924
G1 X74.836 Y95.875 E22.32010
